packages/ui-icons/src/Basic/24/Balance_24.svg

<svg xmlns="http://www.w3.org/2000/svg" viewBox="0 0 32 32"><path d="M16 4a12 12 0 1 0 12 12A12 12 0 0 0 16 4Zm0 22a10 10 0 1 1 10-10 10 10 0 0 1-10 10Z"/><path d="M17 9h-4v6h-2v2h2v2h-2v2h2v2h2v-2h4v-2h-4v-2h2a4 4 0 1 0 0-8Zm0 6h-2v-4h2a2 2 0 0 1 0 4Z"/></svg>

<svg id="Ready" xmlns="http://www.w3.org/2000/svg" viewBox="0 0 32 32"><title>Megaicons_work_24_1.8_cp</title><path d="M16,4A12,12,0,1,0,28,16,12,12,0,0,0,16,4Zm0,22A10,10,0,1,1,26,16,10,10,0,0,1,16,26Z"/><path d="M17,9H13v6H11v2h2v2H11v2h2v2h2V21h4V19H15V17h2a4,4,0,1,0,0-8Zm0,6H15V11h2a2,2,0,0,1,0,4Z"/></svg>
